X:8
T:Robertson's Reel
C: Tom Anderson
R:reel
M:4/4
L:1/8
%%%%%Q:1/2=112
K:A
P:A
  AB |: c2Bc e2cB | ABAF E2AB | c2Bc ecAc | B6 AB |
       c2Bc e2cB | ABAF E2AB | cBce BABe |1 A6 AB :|2 A6 cd |
P:B
     |: e2ce a2a2 | fecd e2cd | e2ce a2g2 | f6 e2 |
       a2A2 A2cB | ABAF E2AB | cBce BABe | A6 cd :|
%%
%% 
%%text
